Numix-GalliumOS/24/status/ubuntuone-client-error.svg

<?xml version="1.0" encoding="UTF-8" standalone="no"?>
<svg
   xmlns:dc="http://purl.org/dc/elements/1.1/"
   xmlns:cc="http://creativecommons.org/ns#"
   xmlns:rdf="http://www.w3.org/1999/02/22-rdf-syntax-ns#"
   xmlns:svg="http://www.w3.org/2000/svg"
   xmlns="http://www.w3.org/2000/svg"
   xmlns:sodipodi="http://sodipodi.sourceforge.net/DTD/sodipodi-0.dtd"
   xmlns:inkscape="http://www.inkscape.org/namespaces/inkscape"
   width="24"
   height="24"
   viewBox="0 0 24 24"
   id="svg2"
   version="1.1"
   inkscape:version="0.91 r"
   sodipodi:docname="ubuntuone-client-error.svg">
  <metadata
     id="metadata12">
    <rdf:RDF>
      <cc:Work
         rdf:about="">
        <dc:format>image/svg+xml</dc:format>
        <dc:type
           rdf:resource="http://purl.org/dc/dcmitype/StillImage" />
      </cc:Work>
    </rdf:RDF>
  </metadata>
  <defs
     id="defs10" />
  <sodipodi:namedview
     pagecolor="#ffffff"
     bordercolor="#666666"
     borderopacity="1"
     objecttolerance="10"
     gridtolerance="10"
     guidetolerance="10"
     inkscape:pageopacity="0"
     inkscape:pageshadow="2"
     inkscape:window-width="640"
     inkscape:window-height="480"
     id="namedview8"
     showgrid="false"
     inkscape:zoom="9.8333333"
     inkscape:cx="12"
     inkscape:cy="12"
     inkscape:window-x="0"
     inkscape:window-y="0"
     inkscape:window-maximized="0"
     inkscape:current-layer="svg2" />
  <path
     style="fill:#ef555c;fill-opacity:1"
     d="M 12 5.863281 C 8.609375 5.863281 5.863281 8.609375 5.863281 12 C 5.863281 12.027344 5.863281 12.050781 5.863281 12.078125 C 5.664062 12.035156 5.460938 12 5.25 12 C 3.554688 12 2.183594 13.375 2.183594 15.066406 C 2.183594 16.761719 3.554688 18.136719 5.25 18.136719 L 17.523438 18.136719 C 19.894531 18.136719 21.816406 16.214844 21.816406 13.839844 C 21.816406 11.496094 19.9375 9.585938 17.597656 9.546875 C 16.648438 7.386719 14.511719 5.863281 12 5.863281 Z M 9.582031 9.199219 C 9.996094 9.128906 10.414062 9.273438 10.695312 9.582031 L 12 10.886719 L 13.304688 9.582031 C 13.707031 9.164062 14.34375 9.085938 14.839844 9.390625 C 14.878906 9.414062 14.917969 9.441406 14.953125 9.46875 C 15.226562 9.691406 15.394531 10.019531 15.40625 10.371094 C 15.421875 10.722656 15.285156 11.066406 15.03125 11.308594 L 13.726562 12.613281 L 15.03125 13.917969 C 15.394531 14.210938 15.5625 14.691406 15.457031 15.148438 C 15.351562 15.605469 14.992188 15.964844 14.535156 16.070312 C 14.078125 16.175781 13.597656 16.007812 13.304688 15.644531 L 12 14.339844 L 10.695312 15.644531 C 10.402344 16.007812 9.921875 16.175781 9.464844 16.070312 C 9.007812 15.964844 8.648438 15.605469 8.542969 15.148438 C 8.4375 14.691406 8.605469 14.210938 8.96875 13.917969 L 10.234375 12.613281 L 8.96875 11.308594 C 8.550781 10.90625 8.472656 10.269531 8.777344 9.777344 C 8.953125 9.480469 9.246094 9.269531 9.582031 9.199219 Z "
     id="path6" />
</svg>

<svg xmlns="http://www.w3.org/2000/svg" viewBox="0 0 24 24">
 <path d="m 12 5.863 c -3.391 0 -6.137 2.746 -6.137 6.137 c 0 0.027 0 0.051 0 0.078 c -0.199 -0.043 -0.402 -0.078 -0.613 -0.078 c -1.695 0 -3.066 1.375 -3.066 3.066 c 0 1.695 1.371 3.07 3.066 3.07 l 12.273 0 c 2.371 0 4.293 -1.922 4.293 -4.297 c 0 -2.344 -1.879 -4.254 -4.219 -4.293 c -0.949 -2.16 -3.086 -3.684 -5.598 -3.684 m -2.418 3.336 c 0.414 -0.07 0.832 0.074 1.113 0.383 l 1.305 1.305 l 1.305 -1.305 c 0.402 -0.418 1.039 -0.496 1.535 -0.191 c 0.039 0.023 0.078 0.051 0.113 0.078 c 0.273 0.223 0.441 0.551 0.453 0.902 c 0.016 0.352 -0.121 0.695 -0.375 0.938 l -1.305 1.305 l 1.305 1.305 c 0.363 0.293 0.531 0.773 0.426 1.23 c -0.105 0.457 -0.465 0.816 -0.922 0.922 c -0.457 0.105 -0.938 -0.063 -1.23 -0.426 l -1.305 -1.305 l -1.305 1.305 c -0.293 0.363 -0.773 0.531 -1.23 0.426 c -0.457 -0.105 -0.816 -0.465 -0.922 -0.922 c -0.105 -0.457 0.063 -0.938 0.426 -1.23 l 1.266 -1.305 l -1.266 -1.305 c -0.418 -0.402 -0.496 -1.039 -0.191 -1.531 c 0.176 -0.297 0.469 -0.508 0.805 -0.578 Z" style="fill:#ef555c;fill-opacity:1"/>
</svg>
